resources/icons/20px/superscript.svg

<svg width="20" height="20" viewBox="0 0 20 20" fill="none" xmlns="http://www.w3.org/2000/svg">
<path fill-rule="evenodd" clip-rule="evenodd" d="M16.024 7.96C16.1838 7.77 16.3636 7.58 16.5834 7.41C16.7932 7.23 17.033 7.05 17.2927 6.88C17.5425 6.7 17.7922 6.52 18.042 6.32C18.2917 6.12 18.5315 5.91 18.7712 5.69C19.001 5.47 19.2108 5.22 19.4006 4.95C19.5804 4.68 19.7303 4.39 19.8402 4.07C19.9501 3.75 20 3.4 20 3C20 2.68 19.9501 2.35 19.8601 2C19.7702 1.65 19.6104 1.32 19.3906 1.03C19.1708 0.73 18.8811 0.48 18.5215 0.29C18.1618 0.09 17.7123 0 17.1728 0C16.6833 0 16.2438 0.1 15.8741 0.29C15.5045 0.47 15.1848 0.73 14.9251 1.07C14.6653 1.4 14.4755 1.8 14.3457 2.27C14.2158 2.73 14.1459 3.23 14.1459 3.77H15.5744C15.5844 3.42 15.6144 3.1 15.6643 2.8C15.7143 2.5 15.8042 2.24 15.9141 2.02C16.024 1.8 16.1738 1.63 16.3636 1.5C16.5535 1.37 16.7932 1.31 17.0729 1.31C17.3826 1.31 17.6324 1.37 17.8222 1.49C18.012 1.61 18.1618 1.75 18.2717 1.92C18.3816 2.09 18.4516 2.28 18.4915 2.48C18.5315 2.68 18.5515 2.87 18.5515 3.05C18.5415 3.43 18.4516 3.77 18.2917 4.07C18.1419 4.37 17.9221 4.64 17.6623 4.9C17.4026 5.15 17.1229 5.39 16.8132 5.61C16.5035 5.83 16.2038 6.06 15.9241 6.29C15.3247 6.74 14.8651 7.27 14.5155 7.87C14.1658 8.48 13.996 9.19 13.986 10H19.97V8.57H15.6943C15.7543 8.36 15.8641 8.15 16.024 7.96ZM0.224095 6.6309C0.0839925 6.45881 0 6.23921 0 6C0 5.44772 0.447715 5 1 5C1.31925 5 1.60356 5.14961 1.78665 5.38253L5 9.39922L8.21338 5.38249C8.39647 5.14959 8.68077 5 9 5C9.55229 5 10 5.44772 10 6C10 6.23923 9.916 6.45883 9.77588 6.63093L6.28062 11L9.77585 15.369C9.91599 15.5411 10 15.7608 10 16C10 16.5523 9.55229 17 9 17C8.68074 17 8.39642 16.8504 8.21334 16.6175L5 12.6008L1.78666 16.6175C1.60357 16.8504 1.31926 17 1 17C0.447715 17 0 16.5523 0 16C0 15.7608 0.0840117 15.5411 0.224143 15.369L3.71938 11L0.224095 6.6309Z" fill="black"/>
</svg>

<svg xmlns="http://www.w3.org/2000/svg" viewBox="0 0 20 20">
  <path d="M16.024 7.96c.16-.19.34-.38.56-.55.21-.18.449-.36.709-.53.25-.18.5-.36.749-.56.25-.2.49-.41.73-.63.229-.22.439-.47.629-.74.18-.27.33-.56.44-.88S20 3.4 20 3c0-.32-.05-.65-.14-1s-.25-.68-.47-.97c-.22-.3-.509-.55-.869-.74-.36-.2-.809-.29-1.348-.29-.49 0-.93.1-1.299.29-.37.18-.69.44-.949.78-.26.33-.45.73-.58 1.2-.13.46-.2.96-.2 1.5h1.43c.01-.35.04-.67.09-.97s.14-.56.25-.78.259-.39.449-.52.43-.19.709-.19q.465 0 .75.18c.189.12.339.26.449.43s.18.36.22.56q.06.3.06.57c-.01.38-.1.72-.26 1.02-.15.3-.37.57-.63.83-.26.25-.54.49-.849.71-.31.22-.61.45-.889.68-.6.45-1.059.98-1.408 1.58-.35.61-.52 1.32-.53 2.13h5.984V8.57h-4.276c.06-.21.17-.42.33-.61M.224 6.63a1 1 0 1 1 1.563-1.248L5 9.4l3.213-4.017A1 1 0 1 1 9.776 6.63L6.28 11l3.495 4.369a1 1 0 1 1-1.563 1.249L5 12.6l-3.213 4.016A1 1 0 1 1 .224 15.37L3.72 11z"/>
</svg>
